X: 1014
T: Zhokul Rezeshilor
C: German Geldensteyn
O: Moldavia
M: 2/4
L: 1/8
K: Dm
Q: 1/4=96
"Dm"T^g3/2f/ aa|T^g3/2f/ g/f/e/d/|T^g3/2f/ aa|[1 d2 d'd':|[2 d2 z d|
|:"A7"^c/d/e- ee/g/|"Dm"f/e/d/^c/ d/e/f/d/|"A7"^c/d/e- ee/g/|[1"Dm"f/e/d/^c/ dD:|[2 f/e/d/^c/ d z|
|:"A7"A,2 A,/^C/E/G/|"Dm" F/E/D/^C/ D/E/F/D/|"A7"^C/D/E- EE/G/|"Dm"F/E/D/^C/ D z:|
